X:171
T:Dainty Davie
R:Strathspey
B:The Athole Collection
M:C
L:1/8
K:F
d|c>BA>G F<D F2|F>c A/B/c/A/ f>cA>f|c>BA>G F<D F2|f>g a/g/f/e/ d>ef:|
|:c|f<af<a f<a ag/f/|e<g c>g e<g gf/e/|1 f<af<a f<a ag/f/|e>c a/g/f/e/ d>ef:|2
f>ga>g g>fe>c|d>e a/g/f/e/ d>ef||

